X: 1
T: Bundle And Go
M: 6/8
L: 1/8
R: jig
K: Emin
|:&quot;Em&quot;E2E EDB,|&quot;G&quot;G3 GAB|&quot;D&quot;A2A ABA|d3 d2e|
d2B GAB|A2F DEF|&quot;G&quot;G2E &quot;D&quot;FED|&quot;Em&quot;E3 E3:|
|:&quot;Em&quot;e2e edB|&quot;D&quot;d3 def|&quot;Em&quot;e2e edB|&quot;D&quot;d3 d2e|
d2B GAB|A2F DEF|&quot;G&quot;G2E &quot;D&quot;FED|&quot;Em&quot;E3 E3:|
